docs/.gitbook/assets/icon-square-ellipsis-16@light.svg

<svg width="32" height="32" viewBox="0 0 16 16" fill="none" xmlns="http://www.w3.org/2000/svg">
<rect x="0" y="0" width="16" height="16" fill="#fff"/>
<path fill-rule="evenodd" clip-rule="evenodd" d="M5.75 1C3.12665 1 1 3.12665 1 5.75V10.25C1 12.8734 3.12665 15 5.75 15H10.25C12.8734 15 15 12.8734 15 10.25V5.75C15 3.12665 12.8734 1 10.25 1H5.75ZM2.5 5.75C2.5 3.95507 3.95507 2.5 5.75 2.5H10.25C12.0449 2.5 13.5 3.95507 13.5 5.75V10.25C13.5 12.0449 12.0449 13.5 10.25 13.5H5.75C3.95507 13.5 2.5 12.0449 2.5 10.25V5.75ZM5.00659 9.00195C5.55996 9.00195 6.00854 8.55336 6.00854 8C6.00854 7.44664 5.55996 6.99805 5.00659 6.99805C4.45323 6.99805 4.00464 7.44664 4.00464 8C4.00464 8.55336 4.45323 9.00195 5.00659 9.00195ZM9.00195 8C9.00195 8.55336 8.55336 9.00195 8 9.00195C7.44664 9.00195 6.99805 8.55336 6.99805 8C6.99805 7.44664 7.44664 6.99805 8 6.99805C8.55336 6.99805 9.00195 7.44664 9.00195 8ZM11.9954 8C11.9954 8.55336 11.5468 9.00195 10.9934 9.00195C10.44 9.00195 9.99146 8.55336 9.99146 8C9.99146 7.44664 10.44 6.99805 10.9934 6.99805C11.5468 6.99805 11.9954 7.44664 11.9954 8Z" fill="#000"/>
</svg>

<svg xmlns="http://www.w3.org/2000/svg" width="32" height="32" fill="none" viewBox="0 0 16 16"><path fill="#fff" d="M0 0h16v16H0z"/><path fill="#000" fill-rule="evenodd" d="M5.75 1A4.75 4.75 0 0 0 1 5.75v4.5A4.75 4.75 0 0 0 5.75 15h4.5A4.75 4.75 0 0 0 15 10.25v-4.5A4.75 4.75 0 0 0 10.25 1zM2.5 5.75A3.25 3.25 0 0 1 5.75 2.5h4.5a3.25 3.25 0 0 1 3.25 3.25v4.5a3.25 3.25 0 0 1-3.25 3.25h-4.5a3.25 3.25 0 0 1-3.25-3.25zm2.507 3.252a1.002 1.002 0 1 0 0-2.004 1.002 1.002 0 0 0 0 2.004M9.002 8a1.002 1.002 0 1 1-2.004 0 1.002 1.002 0 0 1 2.004 0m2.993 0a1.002 1.002 0 1 1-2.004 0 1.002 1.002 0 0 1 2.004 0" clip-rule="evenodd"/></svg>
